templates/main/source/images/point-small.svg

<?xml version="1.0" encoding="utf-8"?>
<svg width="24px" height="24px" viewBox="0 0 24 24" version="1.1" xmlns:xlink="http://www.w3.org/1999/xlink" xmlns="http://www.w3.org/2000/svg">
  <desc>Created with Lunacy</desc>
  <g id="plus">
    <path d="M12 24C18.6274 24 24 18.6274 24 12C24 5.37258 18.6274 0 12 0C5.37258 0 0 5.37258 0 12C0 18.6274 5.37258 24 12 24Z" id="Oval" fill="#8C0014" stroke="none" />
    <path d="M8.001 0L7.999 0Q7.94985 0 7.90165 0.00958814Q7.85345 0.0191763 7.80804 0.0379841Q7.76263 0.0567919 7.72177 0.0840967Q7.6809 0.111401 7.64615 0.146154Q7.6114 0.180906 7.5841 0.22177Q7.55679 0.262635 7.53798 0.308041Q7.51918 0.353447 7.50959 0.40165Q7.5 0.449853 7.5 0.499L7.5 7.5L0.499001 7.5Q0.449853 7.5 0.40165 7.50959Q0.353447 7.51918 0.308041 7.53798Q0.262635 7.55679 0.221771 7.5841Q0.180906 7.6114 0.146154 7.64615Q0.111401 7.6809 0.0840967 7.72177Q0.056792 7.76263 0.0379841 7.80804Q0.0191763 7.85345 0.00958815 7.90165Q0 7.94985 0 7.999L0 8.001Q0 8.05015 0.00958815 8.09835Q0.0191763 8.14655 0.0379841 8.19196Q0.056792 8.23736 0.0840967 8.27823Q0.111401 8.31909 0.146154 8.35385Q0.180906 8.3886 0.221771 8.4159Q0.262635 8.44321 0.308041 8.46201Q0.353447 8.48082 0.40165 8.49041Q0.449853 8.5 0.499001 8.5L7.5 8.5L7.5 15.501Q7.5 15.5501 7.50959 15.5983Q7.51918 15.6466 7.53798 15.692Q7.55679 15.7374 7.5841 15.7782Q7.6114 15.8191 7.64615 15.8538Q7.6809 15.8886 7.72177 15.9159Q7.76263 15.9432 7.80804 15.962Q7.85345 15.9808 7.90165 15.9904Q7.94985 16 7.999 16L8.001 16Q8.05015 16 8.09835 15.9904Q8.14655 15.9808 8.19196 15.962Q8.23736 15.9432 8.27823 15.9159Q8.31909 15.8886 8.35385 15.8538Q8.3886 15.8191 8.4159 15.7782Q8.44321 15.7374 8.46201 15.692Q8.48082 15.6466 8.49041 15.5983Q8.5 15.5501 8.5 15.501L8.5 8.5L15.501 8.5Q15.5501 8.5 15.5983 8.49041Q15.6466 8.48082 15.692 8.46202Q15.7374 8.44321 15.7782 8.4159Q15.8191 8.3886 15.8538 8.35385Q15.8886 8.31909 15.9159 8.27823Q15.9432 8.23736 15.962 8.19196Q15.9808 8.14655 15.9904 8.09835Q16 8.05015 16 8.001L16 7.999Q16 7.94985 15.9904 7.90165Q15.9808 7.85345 15.962 7.80804Q15.9432 7.76263 15.9159 7.72177Q15.8886 7.6809 15.8538 7.64615Q15.8191 7.6114 15.7782 7.5841Q15.7374 7.55679 15.692 7.53798Q15.6466 7.51918 15.5983 7.50959Q15.5501 7.5 15.501 7.5L8.5 7.5L8.5 0.499Q8.5 0.449853 8.49041 0.40165Q8.48082 0.353447 8.46202 0.308041Q8.44321 0.262635 8.4159 0.22177Q8.3886 0.180906 8.35385 0.146154Q8.31909 0.111401 8.27823 0.0840967Q8.23736 0.0567919 8.19196 0.0379841Q8.14655 0.0191763 8.09835 0.00958814Q8.05015 0 8.001 0Z" transform="translate(4 4)" id="Combined-Shape" fill="#FFFFFF" fill-rule="evenodd" stroke="none" />
  </g>
</svg>

<svg width="24" height="24" viewBox="0 0 24 24" xmlns:xlink="http://www.w3.org/1999/xlink" xmlns="http://www.w3.org/2000/svg"><g id="plus" stroke="none"><path d="M12 24c6.627 0 12-5.373 12-12S18.627 0 12 0 0 5.373 0 12s5.373 12 12 12z" id="Oval" fill="#8C0014"/><path d="M8.001 0h-.002q-.05 0-.097.01-.049.01-.094.028-.045.019-.086.046-.041.027-.076.062-.035.035-.062.076-.027.04-.046.086-.019.045-.028.094Q7.5.45 7.5.499V7.5H.499q-.05 0-.097.01-.049.01-.094.028-.045.019-.086.046-.041.027-.076.062-.035.035-.062.076-.027.04-.046.086-.019.045-.028.094Q0 7.95 0 7.999v.002q0 .05.01.097.01.049.028.094.019.045.046.086.027.041.062.076.035.035.076.062.04.027.086.046.045.019.094.028.048.01.097.01H7.5v7.001q0 .05.01.097.01.049.028.094.019.045.046.086.027.041.062.076.035.035.076.062.04.027.086.046.045.019.094.028.048.01.097.01h.002q.05 0 .097-.01.049-.01.094-.028.045-.019.086-.046.041-.027.076-.062.035-.035.062-.076.027-.04.046-.086.019-.045.028-.094.01-.048.01-.097V8.5h7.001q.05 0 .097-.01.049-.01.094-.028.045-.019.086-.046.041-.027.076-.062.035-.035.062-.076.027-.04.046-.086.019-.045.028-.094.01-.048.01-.097v-.002q0-.05-.01-.097-.01-.049-.028-.094-.019-.045-.046-.086-.027-.041-.062-.076-.035-.035-.076-.062-.04-.027-.086-.046-.045-.019-.094-.028-.048-.01-.097-.01H8.5V.499q0-.05-.01-.097-.01-.049-.028-.094-.019-.045-.046-.086Q8.389.18 8.354.146 8.319.111 8.278.084q-.04-.027-.086-.046Q8.147.019 8.098.01 8.05 0 8.001 0z" transform="translate(4 4)" id="Combined-Shape" fill="#FFF" fill-rule="evenodd"/></g></svg>
